X: 059
T: Hamilton House
B: 204 Favourite Country Dances
N: Published by Straight & Skillern, London ca.1775
F: http://imslp.org/wiki/204_Favourite_Country_Dances_(Various) p.30 #59
Z: 2014 John Chambers <jc:trillian.mit.edu>
N: The 2nd strain has initial repeat but no final repeat; not fixed.
M: 2/4
L: 1/8
K: C
% - - - - - - - - - - - - - - - - - - - - - - - - -
|:\
EGce | {e}d2ce | {e}d2cB | cGEC |\
EGce | {e}d2ce | edcB | c4 :|
|:\
Gceg | g2eg | fedc | {c}B2AG |\
EGcB | Acfe | dedc | {c2}B4 |
EGce | {e}d2ce | {e}d2cB | cGEC |\
EGce | g3f | edcB | c4 |]
% - - - - - - - - - - - - - - - - - - - - - - - - -
%%begintext align
%% Hands across back again cross over Right
%% & Left at top
%%endtext

%%sep 1 1 500
%%sep 1 1 500
